data/playwrite-gb-s.svg

<svg width="106.51" height="23.1" viewBox="0 0 106.51 23.1" xmlns="http://www.w3.org/2000/svg"><path transform="translate(0 17.85) scale(.014 -.014)" d="m169-14q-44 0-44 28v834q0 14 11.5 20.5t33.5 6.5h190q100 0 167-22t101.5-70 34.5-127q0-77-29-130.5t-76-87.5-103-53.5-111-28.5q-37-5-71-7.5t-60-2.5v-332q0-14-11-21t-33-7zm44 439q19 0 40.5 1t44.5 3.5 46 5.5q57 10 109.5 34t86 69 33.5 117q0 51-24 81.5t-71.5 44.5-117.5 14h-147z"/><path transform="translate(9.8 17.85) scale(.014 -.014)" d="m190-17q-47 0-71 27.5t-24 80.5v773q0 13 10.5 19.5t31.5 6.5q22 0 33-6.5t11-19.5v-760q0-25 6-34.5t19-9.5q8 0 14 4.5t12.5 14.5 13.5 24q5 9 14 10t21-5q12-5 17-14.5t1-17.5q-11-29-27.5-49.5t-36.5-32-45-11.5z"/><path transform="translate(13.986 17.85) scale(.014 -.014)" d="m234-17q-52 0-90.5 28.5t-59.5 82.5-21 132q0 52 9.5 97t28 81.5 46 62 63 39 78.5 13.5q34 0 64-8t60-24v3q0 12 11 18.5t33 6.5 32.5-6.5 10.5-19.5v-385q0-16 2.5-26t8-14 13.5-4 14.5 4.5 13 14 15.5 24.5q4 9 13 10.5t21-5.5q13-6 18-15.5t0-20.5q-9-24-25-44t-36.5-32.5-46.5-12.5q-24 0-41.5 7t-30 20.5-18.5 32.5-7 43q0 13-0.5 27.5t-0.5 29.5q-19-53-47-88.5t-61-53.5-70-18zm-83 245q0-48 9.5-85.5t31.5-58.5 56-21q35 0 67 31t57 88 40 136v92q-31 18-58.5 24.5t-52.5 6.5q-28 0-51.5-9t-42-26.5-31-43-19-59-6.5-75.5z"/><path transform="translate(22.694 17.85) scale(.014 -.014)" d="m241-17q-42 0-75.5 16t-52.5 53-19 98v339q0 13 10.5 19.5t31.5 6.5q22 0 33-6.5t11-19.5v-331q0-33 7.5-54.5t23.5-32 42-10.5q33 0 61.5 21.5t51 61 39.5 93.5 27 117v135q0 13 10.5 19.5t32.5 6.5 33-6.5 11-19.5v-642q0-80-22.5-134t-67.5-80.5-111-26.5q-40 0-78 11.5t-68.5 30-50.5 38.5q-11 13-11.5 26.5t17.5 28.5q16 12 26 12.5t26-11.5q37-30 69-44t72-14q42 0 66.5 16.5t35 53 10.5 96.5v310q-17-48-40-82t-48.5-54.5-52-30.5-50.5-10z"/><path transform="translate(31.486 17.85) scale(.014 -.014)" d="m229-15q-22 0-32 7t-15 19l-157 454q-7 20 4.5 35t39.5 15q15 0 24-6t13-20l124-380 132 380q5 14 14.5 20t25.5 6q15 0 25-6t14-20l135-380 123 380q5 14 14 20t24 6q29 0 40-14t3-36l-159-454q-4-12-14-19t-32-7-30.5 7.5-12.5 18.5l-130 367-127-367q-4-11-14.5-18.5t-31.5-7.5z"/><path transform="translate(42.742 17.85) scale(.014 -.014)" d="m136-15q-21 0-31.5 6.5t-10.5 19.5v478q0 13 10.5 19.5t31.5 6.5q22 0 33-6.5t11-19.5v-143q17 46 38 79t44 53.5 45.5 30.5 43.5 10q25 0 49.5-10.5t36.5-25.5q7-7 6.5-17.5t-9.5-24.5-20-17.5-23 2.5-23.5 10-26.5 4q-23 0-48-21t-47-60-39.5-92.5-26.5-116.5v-139q0-13-11-19.5t-33-6.5z"/><path transform="translate(49.098 17.85) scale(.014 -.014)" d="m189-17q-47 0-71 27.5t-24 80.5v398q0 13 10.5 19.5t31.5 6.5q22 0 33-6.5t11-19.5v-385q0-25 6-34.5t19-9.5q8 0 13.5 5t12 14.5 14.5 24.5q5 8 14.5 8.5t20.5-4.5q12-6 17-15t0-18q-11-29-27.5-49t-36-31.5-44.5-11.5zm-56 686q-28 0-42 15.5t-14 46.5q0 32 14 48t42 16 41.5-16 13.5-48q2-31-12.5-46.5t-42.5-15.5z"/><path transform="translate(53.298 17.85) scale(.014 -.014)" d="m232-17q-38 0-63.5 15t-38.5 45-13 73v304h-77q-15 0-21.5 9t-6.5 31q0 23 6.5 31.5t21.5 8.5h77v204q0 13 10.5 19.5t32.5 6.5 33-6.5 11-19.5v-204h126q15 0 21.5-8.5t6.5-31.5q0-22-6.5-31t-21.5-9h-126v-295q0-35 9.5-50t28.5-15q21 0 38.5 14t35.5 47q6 9 15 10.5t23-4.5q15-7 19.5-17.5t-0.5-20.5q-14-37-35.5-60.5t-48-34.5-57.5-11z"/><path transform="translate(58.716 17.85) scale(.014 -.014)" d="m277-19q-67 0-115 30.5t-73.5 85.5-25.5 127q0 61 18 114.5t51.5 94.5 81 63.5 107.5 22.5q43 0 78-14t55.5-42.5 20.5-72.5q0-38-18-70t-49.5-57-74-44.5-92-32.5-103.5-21l-3 69q34 6 69.5 15t68 22 58 29 40 36.5 14.5 44.5q0 32-22 45.5t-54 13.5q-33 0-62-14.5t-50.5-41.5-33.5-63.5-12-80.5q0-58 16-97.5t46-60.5 72-21q35 0 58.5 11.5t41.5 31.5 37 42q12 15 25 14t26-12q14-11 17.5-22t-4.5-24q-28-42-61-69t-70-39.5-78-12.5z"/><path transform="translate(70.28 17.85) scale(.014 -.014)" d="m384-17q-70 0-126 28t-95.5 81-60.5 129.5-21 173.5q0 74 13 139.5t37 121 59 99 79.5 73.5 97.5 46 113 16q58 0 107-13t91.5-38.5 80.5-62.5q13-13 12.5-27t-21.5-30q-15-14-25.5-9t-27.5 17q-35 29-70 46t-71 24.5-76 7.5q-47 0-88.5-13t-75-38-60.5-61-45-81.5-28-100-10-116.5q0-78 14.5-139t42-103 67-63.5 90.5-21.5q59 0 108.5 30t89 82 69 120.5 47.5 144.5q0 14 11 21t33 7q44 0 44-28v-426q0-13-11-20t-33-7q-44 0-44 27v222q-26-59-59.5-107t-73.5-81.5-86.5-51.5-97.5-18z"/><path transform="translate(82.53 17.85) scale(.014 -.014)" d="m169 0q-44 0-44 28v820q0 27 45 27h201q82 0 142-16t92.5-57 32.5-116q0-46-19.5-82t-50.5-63-66-45.5-67-29.5v-3q47-1 90-12t77-33 53.5-58.5 19.5-88.5q0-48-15-90t-43.5-75-69-57-91-36.5-110.5-12.5zm44 80h133q65 0 110.5 16t73.5 43.5 41.5 61 13.5 69.5q0 41-14.5 70t-43 47.5-70.5 27-98 8.5h-146zm0 423h133q43 0 79.5 13.5t64 38 43 58 15.5 73.5q0 47-23 70t-62.5 31-91.5 8h-158z"/><path transform="translate(96.88 17.85) scale(.014 -.014)" d="m339-19q-37 0-74 8.5t-72.5 24.5-65.5 39-52 52q-7 11-7.5 20.5t14.5 22.5q16 15 25 16.5t28-15.5q21-18 49.5-37.5t67-32.5 87.5-13q47 0 82 9.5t59 29.5 36 50.5 12 72.5q0 35-12.5 60t-36 44-56 34.5-73.5 30.5q-35 13-71 30t-69 39-58.5 52-40.5 69-15 89q0 51 19 90.5t54 67 82.5 42 104.5 14.5q50 0 90-12.5t74-35.5 66-54q10-10 8.5-20.5t-12.5-21.5q-12-13-24-18.5t-22 3.5q-25 23-50 40t-56.5 25.5-73.5 8.5q-40 0-71-8t-52.5-24-32.5-40.5-11-56.5q0-41 13-70t37.5-50 58-37.5 73.5-30.5q42-15 86-35t81-49.5 59.5-72 22.5-103.5-19.5-107-56.5-77-89-47-116-16z"/></svg>

<?xml version="1.0" encoding="utf-8" ?>
<svg baseProfile="tiny" height="100%" version="1.2" width="100%" xmlns="http://www.w3.org/2000/svg" xmlns:ev="http://www.w3.org/2001/xml-events" xmlns:xlink="http://www.w3.org/1999/xlink"><defs /><g><path d="M169 -14Q125 -14 125 14V848Q125 862 136.5 868.5Q148 875 170 875H360Q460 875 527.0 853.0Q594 831 628.5 783.0Q663 735 663 656Q663 579 634.0 525.5Q605 472 558.0 438.0Q511 404 455.0 384.5Q399 365 344 356Q307 351 273.0 348.5Q239 346 213 346V14Q213 0 202.0 -7.0Q191 -14 169 -14ZM213 425Q232 425 253.5 426.0Q275 427 298.0 429.5Q321 432 344 435Q401 445 453.5 469.0Q506 493 539.5 538.0Q573 583 573 655Q573 706 549.0 736.5Q525 767 477.5 781.0Q430 795 360 795H213Z" transform="translate(0.0, 72) scale(0.072, -0.072)" /><path d="M190 -17Q143 -17 119.0 10.5Q95 38 95 91V864Q95 877 105.5 883.5Q116 890 137 890Q159 890 170.0 883.5Q181 877 181 864V104Q181 79 187.0 69.5Q193 60 206 60Q214 60 220.0 64.5Q226 69 232.5 79.0Q239 89 246 103Q251 112 260.0 113.0Q269 114 281 108Q293 103 298.0 93.5Q303 84 299 76Q288 47 271.5 26.5Q255 6 235.0 -5.5Q215 -17 190 -17Z" transform="translate(50.4, 72) scale(0.072, -0.072)" /><path d="M234 -17Q182 -17 143.5 11.5Q105 40 84.0 94.0Q63 148 63 226Q63 278 72.5 323.0Q82 368 100.5 404.5Q119 441 146.5 466.5Q174 492 209.5 505.5Q245 519 288 519Q322 519 352.0 511.0Q382 503 412 487V490Q412 502 423.0 508.5Q434 515 456 515Q478 515 488.5 508.5Q499 502 499 489V104Q499 88 501.5 78.0Q504 68 509.5 64.0Q515 60 523 60Q531 60 537.5 64.5Q544 69 550.5 78.5Q557 88 566 103Q570 112 579.0 113.5Q588 115 600 108Q613 102 618.0 92.5Q623 83 618 72Q609 48 593.0 28.0Q577 8 556.5 -4.5Q536 -17 510 -17Q486 -17 468.5 -10.0Q451 -3 438.5 10.5Q426 24 420.0 43.0Q414 62 413 86Q413 99 412.5 113.5Q412 128 412 143Q393 90 365.0 54.5Q337 19 304.0 1.0Q271 -17 234 -17ZM151 228Q151 180 160.5 142.5Q170 105 192.0 84.0Q214 63 248 63Q283 63 315.0 94.0Q347 125 372.0 182.0Q397 239 412 318V410Q381 428 353.5 434.5Q326 441 301 441Q273 441 249.5 432.0Q226 423 207.5 405.5Q189 388 176.5 362.5Q164 337 157.5 303.5Q151 270 151 228Z" transform="translate(71.928, 72) scale(0.072, -0.072)" /><path d="M241 -17Q199 -17 165.5 -1.0Q132 15 113.0 52.0Q94 89 94 150V489Q94 502 104.5 508.5Q115 515 136 515Q158 515 169.0 508.5Q180 502 180 489V158Q180 125 187.5 103.5Q195 82 211.0 71.5Q227 61 253 61Q286 61 314.5 82.5Q343 104 365.5 143.5Q388 183 405.0 237.0Q422 291 432 354V489Q432 502 442.5 508.5Q453 515 475 515Q497 515 508.0 508.5Q519 502 519 489V-153Q519 -233 496.5 -287.0Q474 -341 429.0 -367.5Q384 -394 318 -394Q278 -394 240.0 -382.5Q202 -371 171.5 -352.5Q141 -334 121 -314Q110 -301 109.5 -287.5Q109 -274 127 -259Q143 -247 153.0 -246.5Q163 -246 179 -258Q216 -288 248.0 -302.0Q280 -316 320 -316Q362 -316 386.5 -299.5Q411 -283 421.5 -246.5Q432 -210 432 -150V160Q415 112 392.0 78.0Q369 44 343.5 23.5Q318 3 291.5 -7.0Q265 -17 241 -17Z" transform="translate(116.71199999999999, 72) scale(0.072, -0.072)" /><path d="M229 -15Q207 -15 197.0 -8.0Q187 -1 182 11L25 465Q18 485 29.5 500.0Q41 515 69 515Q84 515 93.0 509.0Q102 503 106 489L230 109L362 489Q367 503 376.5 509.0Q386 515 402 515Q417 515 427.0 509.0Q437 503 441 489L576 109L699 489Q704 503 713.0 509.0Q722 515 737 515Q766 515 777.0 501.0Q788 487 780 465L621 11Q617 -1 607.0 -8.0Q597 -15 575 -15Q553 -15 544.5 -7.5Q536 0 532 11L402 378L275 11Q271 0 260.5 -7.5Q250 -15 229 -15Z" transform="translate(161.928, 72) scale(0.072, -0.072)" /><path d="M136 -15Q115 -15 104.5 -8.5Q94 -2 94 11V489Q94 502 104.5 508.5Q115 515 136 515Q158 515 169.0 508.5Q180 502 180 489V346Q197 392 218.0 425.0Q239 458 262.0 478.5Q285 499 307.5 509.0Q330 519 351 519Q376 519 400.5 508.5Q425 498 437 483Q444 476 443.5 465.5Q443 455 434 441Q425 427 414.0 423.5Q403 420 391 426Q379 432 367.5 436.0Q356 440 341 440Q318 440 293.0 419.0Q268 398 246.0 359.0Q224 320 206.5 266.5Q189 213 180 150V11Q180 -2 169.0 -8.5Q158 -15 136 -15Z" transform="translate(219.816, 72) scale(0.072, -0.072)" /><path d="M189 -17Q142 -17 118.0 10.5Q94 38 94 91V489Q94 502 104.5 508.5Q115 515 136 515Q158 515 169.0 508.5Q180 502 180 489V104Q180 79 186.0 69.5Q192 60 205 60Q213 60 218.5 65.0Q224 70 230.5 79.5Q237 89 245 104Q250 112 259.5 112.5Q269 113 280 108Q292 102 297.0 93.0Q302 84 297 75Q286 46 269.5 26.0Q253 6 233.5 -5.5Q214 -17 189 -17ZM133 669Q105 669 91.0 684.5Q77 700 77 731Q77 763 91.0 779.0Q105 795 133 795Q161 795 174.5 779.0Q188 763 188 731Q190 700 175.5 684.5Q161 669 133 669Z" transform="translate(252.504, 72) scale(0.072, -0.072)" /><path d="M232 -17Q194 -17 168.5 -2.0Q143 13 130.0 43.0Q117 73 117 116V420H40Q25 420 18.5 429.0Q12 438 12 460Q12 483 18.5 491.5Q25 500 40 500H117V704Q117 717 127.5 723.5Q138 730 160 730Q182 730 193.0 723.5Q204 717 204 704V500H330Q345 500 351.5 491.5Q358 483 358 460Q358 438 351.5 429.0Q345 420 330 420H204V125Q204 90 213.5 75.0Q223 60 242 60Q263 60 280.5 74.0Q298 88 316 121Q322 130 331.0 131.5Q340 133 354 127Q369 120 373.5 109.5Q378 99 373 89Q359 52 337.5 28.5Q316 5 289.5 -6.0Q263 -17 232 -17Z" transform="translate(274.104, 72) scale(0.072, -0.072)" /><path d="M277 -19Q210 -19 162.0 11.5Q114 42 88.5 97.0Q63 152 63 224Q63 285 81.0 338.5Q99 392 132.5 433.0Q166 474 213.5 496.5Q261 519 321 519Q364 519 399.0 505.0Q434 491 454.5 462.5Q475 434 475 390Q475 352 457.0 320.0Q439 288 407.5 263.0Q376 238 333.5 218.5Q291 199 241.5 186.0Q192 173 138 165L135 234Q169 240 204.5 249.0Q240 258 272.5 271.0Q305 284 330.5 300.0Q356 316 370.5 336.5Q385 357 385 381Q385 413 363.0 426.5Q341 440 309 440Q276 440 247.0 425.5Q218 411 196.5 384.0Q175 357 163.0 320.5Q151 284 151 240Q151 182 167.0 142.5Q183 103 213.0 82.0Q243 61 285 61Q320 61 343.5 72.5Q367 84 385.0 104.0Q403 124 422 146Q434 161 447.0 160.0Q460 159 473 148Q487 137 490.5 126.0Q494 115 486 102Q458 60 425.0 33.0Q392 6 355.0 -6.5Q318 -19 277 -19Z" transform="translate(301.96799999999996, 72) scale(0.072, -0.072)" /><path d="M384 -17Q314 -17 258.0 11.0Q202 39 162.5 92.0Q123 145 102.0 221.5Q81 298 81 395Q81 469 94.0 534.5Q107 600 131.0 655.5Q155 711 190.0 754.5Q225 798 269.5 828.0Q314 858 367.0 874.0Q420 890 480 890Q538 890 587.0 877.0Q636 864 678.5 838.5Q721 813 759 776Q772 763 771.5 749.0Q771 735 750 719Q735 705 724.5 710.0Q714 715 697 727Q662 756 627.0 773.0Q592 790 556.0 797.5Q520 805 480 805Q433 805 391.5 792.0Q350 779 316.5 754.0Q283 729 256.0 693.0Q229 657 211.0 611.5Q193 566 183.0 511.5Q173 457 173 395Q173 317 187.5 256.0Q202 195 229.5 153.0Q257 111 296.5 89.5Q336 68 387 68Q446 68 495.5 98.0Q545 128 584.5 180.0Q624 232 653.5 300.5Q683 369 701 445Q701 459 712.0 466.0Q723 473 745 473Q789 473 789 445V19Q789 6 778.0 -1.0Q767 -8 745 -8Q701 -8 701 19V241Q675 182 641.5 134.0Q608 86 568.0 52.5Q528 19 481.5 1.0Q435 -17 384 -17Z" transform="translate(361.44, 72) scale(0.072, -0.072)" /><path d="M169 0Q125 0 125 28V848Q125 875 170 875H371Q453 875 513.0 859.0Q573 843 605.5 802.0Q638 761 638 686Q638 640 618.5 604.0Q599 568 568.0 541.0Q537 514 502.0 495.5Q467 477 435 466V463Q482 462 525.0 451.0Q568 440 602.0 418.0Q636 396 655.5 359.5Q675 323 675 271Q675 223 660.0 181.0Q645 139 616.5 106.0Q588 73 547.5 49.0Q507 25 456.5 12.5Q406 0 346 0ZM213 80H346Q411 80 456.5 96.0Q502 112 530.0 139.5Q558 167 571.5 200.5Q585 234 585 270Q585 311 570.5 340.0Q556 369 527.5 387.5Q499 406 457.0 414.5Q415 423 359 423H213ZM213 503H346Q389 503 425.5 516.5Q462 530 489.5 554.5Q517 579 532.5 612.5Q548 646 548 686Q548 733 525.0 756.0Q502 779 462.5 787.0Q423 795 371 795H213Z" transform="translate(424.44, 72) scale(0.072, -0.072)" /><path d="M339 -19Q302 -19 265.0 -10.5Q228 -2 192.5 14.0Q157 30 127.0 53.0Q97 76 75 105Q68 116 67.5 125.5Q67 135 82 148Q98 163 107.0 164.5Q116 166 135 149Q156 131 184.5 111.5Q213 92 251.5 79.0Q290 66 339 66Q386 66 421.0 75.5Q456 85 480.0 105.0Q504 125 516.0 155.5Q528 186 528 228Q528 263 515.5 288.0Q503 313 479.5 332.0Q456 351 423.5 366.5Q391 382 350 397Q315 410 279.0 427.0Q243 444 210.0 466.0Q177 488 151.5 518.0Q126 548 111.0 587.0Q96 626 96 676Q96 727 115.0 766.5Q134 806 169.0 833.5Q204 861 251.5 875.5Q299 890 356 890Q406 890 446.0 877.5Q486 865 520.0 842.0Q554 819 586 788Q596 778 594.5 767.5Q593 757 582 746Q570 733 558.0 727.5Q546 722 536 731Q511 754 486.0 771.0Q461 788 429.5 796.5Q398 805 356 805Q316 805 285.0 797.0Q254 789 232.5 773.0Q211 757 200.0 732.5Q189 708 189 676Q189 635 202.0 606.0Q215 577 239.5 556.0Q264 535 297.5 518.5Q331 502 371 488Q413 473 457.0 453.0Q501 433 538.0 403.5Q575 374 597.5 331.5Q620 289 620 228Q620 167 600.5 121.0Q581 75 544.0 44.0Q507 13 455.0 -3.0Q403 -19 339 -19Z" transform="translate(498.24, 72) scale(0.072, -0.072)" /></g></svg>
